svg/transgender_outline.svg

<svg width="48" height="48" viewBox="0 0 48 48" fill="none" xmlns="http://www.w3.org/2000/svg">
<path fill-rule="evenodd" clip-rule="evenodd" d="M23.9997 8.08008C22.0667 8.08008 20.4998 9.64706 20.4998 11.5799C20.4998 13.5129 22.0667 15.0799 23.9997 15.0799C25.9327 15.0799 27.4997 13.5129 27.4997 11.5799C27.4997 9.64706 25.9327 8.08008 23.9997 8.08008ZM23.9997 8.63277C25.6277 8.63297 26.9467 9.95235 26.9467 11.5799C26.9467 13.2079 25.6277 14.5269 23.9997 14.5269C22.3717 14.5279 21.0508 13.2089 21.0508 11.5799C21.0508 9.95165 22.3717 8.63187 23.9997 8.63277ZM23.6517 15.9409L20.4648 15.9429V15.9509C19.8918 15.9629 19.3458 16.2779 19.0758 16.8299L15.2068 24.7558C14.8238 25.5398 15.1488 26.4797 15.9338 26.8627C16.7178 27.2457 17.6558 26.9227 18.0388 26.1387L20.5758 20.8808L20.4648 26.7437V27.9297V29.0757V38.3436C20.4648 39.2166 21.1658 39.9196 22.0387 39.9196C22.9117 39.9196 23.6147 39.2166 23.6147 38.3436V31.2317H23.9997H24.3747V38.3436C24.3747 39.2166 25.0777 39.9196 25.9507 39.9196C26.8237 39.9196 27.5267 39.2166 27.5267 38.3436V31.2317H29.7476C26.7737 26.3607 26.1787 24.4198 27.2397 20.3828L29.9586 26.1387C30.3416 26.9227 31.2816 27.2457 32.0656 26.8627C32.8506 26.4797 33.1736 25.5398 32.7906 24.7558L28.9217 16.8299C28.6507 16.2759 28.1027 15.9569 27.5267 15.9489V15.9409H24.3397H23.9997H23.6517ZM27.4707 16.5179V16.5289C27.8457 16.5389 28.2037 16.7419 28.3827 17.1039L29.2107 18.7808C29.2207 18.7998 29.2367 18.8068 29.2457 18.8258L32.3046 25.0228C32.5606 25.5428 32.3486 26.1678 31.8296 26.4237C31.3106 26.6797 30.6856 26.4687 30.4296 25.9488L29.5996 24.2698C29.5896 24.2548 29.5746 24.2438 29.5656 24.2248L26.9957 19.0178C26.2177 22.9768 25.0887 24.6998 28.8587 30.6927L26.9957 30.6777V31.3687V32.2247V34.3086V38.2786C26.9957 38.5686 26.8797 38.8306 26.6907 39.0196C26.5027 39.2076 26.2397 39.3236 25.9507 39.3236C25.6617 39.3236 25.3997 39.2086 25.2107 39.0196C25.0217 38.8306 24.9037 38.5686 24.9037 38.2786V34.3086V32.2247V31.3687V30.6777H24.5137H23.0857V31.3687V32.2247V34.3086V38.2786C23.0857 38.8586 22.6177 39.3236 22.0387 39.3236C21.4597 39.3236 20.9938 38.8586 20.9938 38.2786V34.3086V32.2247V31.3687V30.6207V28.2537V27.3977V25.3138V24.5658V23.7108V21.3438V18.9798L18.4058 24.2228C18.3978 24.2408 18.3818 24.2518 18.3728 24.2678L17.5428 25.9468C17.2868 26.4667 16.6618 26.6777 16.1428 26.4217C15.6228 26.1648 15.4118 25.5408 15.6678 25.0208L18.7268 18.8238C18.7348 18.8058 18.7518 18.7978 18.7618 18.7788L19.5898 17.1019C19.7818 16.7119 20.1808 16.4969 20.5878 16.5199H23.9997L27.4707 16.5179Z" fill="#333333"/>
</svg>

<?xml version="1.0" encoding="UTF-8" standalone="no"?>
<!-- Created with Inkscape (http://www.inkscape.org/) -->
<svg id="svg8" xmlns:rdf="http://www.w3.org/1999/02/22-rdf-syntax-ns#" xmlns="http://www.w3.org/2000/svg" xmlns:osb="http://www.openswatchbook.org/uri/2009/osb" height="48" width="48" version="1.1" xmlns:cc="http://creativecommons.org/ns#" viewBox="0 0 12.7 12.7" xmlns:dc="http://purl.org/dc/elements/1.1/">
 <title id="title4753">UIO-icon</title>
 <metadata id="metadata5">
  <rdf:RDF>
   <cc:Work rdf:about="">
    <dc:format>image/svg+xml</dc:format>
    <dc:type rdf:resource="http://purl.org/dc/dcmitype/StillImage"/>
    <dc:title>UIO-icon</dc:title>
    <dc:creator>
     <cc:Agent>
      <dc:title>Joaquín Urbano</dc:title>
     </cc:Agent>
    </dc:creator>
    <dc:rights>
     <cc:Agent>
      <dc:title>GPL</dc:title>
     </cc:Agent>
    </dc:rights>
   </cc:Work>
  </rdf:RDF>
 </metadata>
 <g id="layer1" transform="translate(0,-284.3)">
  <path id="rect4902" d="m24 8.0801c-1.933 0-3.5 1.567-3.5 3.4999 0 1.933 1.567 3.5 3.5 3.5s3.5-1.567 3.5-3.5c0-1.9329-1.567-3.4999-3.5-3.4999zm0 0.5527c1.628 0.0002 2.947 1.3196 2.947 2.9472 0 1.628-1.319 2.947-2.947 2.947-1.628 0.001-2.949-1.318-2.949-2.947 0-1.6283 1.321-2.9481 2.949-2.9472zm-0.348 7.3082l-3.187 0.002v0.008c-0.573 0.012-1.119 0.327-1.389 0.879l-3.869 7.926c-0.383 0.784-0.058 1.724 0.727 2.107 0.784 0.383 1.722 0.06 2.105-0.724l2.537-5.258-0.111 5.863v1.186 1.146 9.268c0 0.873 0.701 1.576 1.574 1.576s1.576-0.703 1.576-1.576v-7.112h0.385 0.375v7.112c0 0.873 0.703 1.576 1.576 1.576s1.576-0.703 1.576-1.576v-7.112h2.221c-2.974-4.871-3.569-6.812-2.508-10.849l2.719 5.756c0.383 0.784 1.323 1.107 2.107 0.724 0.785-0.383 1.108-1.323 0.725-2.107l-3.869-7.926c-0.271-0.554-0.819-0.873-1.395-0.881v-0.008h-3.187-0.34-0.348zm3.819 0.577v0.011c0.375 0.01 0.733 0.213 0.912 0.575l0.828 1.677c0.01 0.019 0.026 0.026 0.035 0.045l3.059 6.197c0.256 0.52 0.044 1.145-0.475 1.401s-1.144 0.045-1.4-0.475l-0.83-1.679c-0.01-0.015-0.025-0.026-0.034-0.045l-2.57-5.207c-0.778 3.959-1.907 5.682 1.863 11.675l-1.863-0.015v0.691 0.856 2.084 3.97c0 0.29-0.116 0.552-0.305 0.741-0.188 0.188-0.451 0.304-0.74 0.304s-0.551-0.115-0.74-0.304-0.307-0.451-0.307-0.741v-3.97-2.084-0.856-0.691h-0.39-1.428v0.691 0.856 2.084 3.97c0 0.58-0.468 1.045-1.047 1.045s-1.045-0.465-1.045-1.045v-3.97-2.084-0.856-0.748-2.367-0.856-2.084-0.748-0.855-2.367-2.364l-2.588 5.243c-0.008 0.018-0.024 0.029-0.033 0.045l-0.83 1.679c-0.256 0.52-0.881 0.731-1.4 0.475-0.52-0.257-0.731-0.881-0.475-1.401l3.059-6.197c0.008-0.018 0.025-0.026 0.035-0.045l0.828-1.677c0.192-0.39 0.591-0.605 0.998-0.582h3.412l3.471-0.002z" fill-rule="evenodd" transform="matrix(.26458 0 0 .26458 0 284.3)" fill="#333"/>
 </g>
</svg>
